X: 34518
T: Rigney's
R: reel
M: 4/4
K: Edorian
|:A|B2dB BAFE|D2FD ADFA|B2dB BAFE|DFAF FEFA|
(3BAG dc BAFE|DEFD EDB,D|G2EG FEDB,|A,B,DE FEE:|
|:F|GABc dGBG|D2Bd AFDF|GABc dGBG|AFDE FEEF|
GABc dG3|d2Bd AFDF|G2EG FEDB,|A,B,DE FEE:|

